X:1075
M:C
L:1/8
Q:1/4=104
K:G
d    |g3 f  e3   d |(cB) (AG)   F2 zA| d2   d2 (Be) (fg)| d2 T^c2  d2 z
d    |g3 g (gf2) f | ed   e2 {e}d2 zd|(dB2)  e (cA2)  d |(BG2)^c   d4 |
"^[Ad lib..."G>G A2G4|B>B c2 "^...]"HB3   \
  (cB) (AB) (cB) (AB)|(ed) (ef) Hg4      |B3c ({B}A4)|G6|]

